svgs/thin/brackets-square.svg

<svg xmlns="http://www.w3.org/2000/svg" viewBox="0 0 448 512"><!--! Font Awesome Pro 6.6.0 by @fontawesome - https://fontawesome.com License - https://fontawesome.com/license (Commercial License) Copyright 2024 Fonticons, Inc. --><path d="M408 32c22.1 0 40 17.9 40 40l0 368c0 22.1-17.9 40-40 40l-112 0c-4.4 0-8-3.6-8-8s3.6-8 8-8l112 0c13.3 0 24-10.7 24-24l0-368c0-13.3-10.7-24-24-24L296 48c-4.4 0-8-3.6-8-8s3.6-8 8-8l112 0zM40 32l112 0c4.4 0 8 3.6 8 8s-3.6 8-8 8L40 48C26.7 48 16 58.7 16 72l0 368c0 13.3 10.7 24 24 24l112 0c4.4 0 8 3.6 8 8s-3.6 8-8 8L40 480c-22.1 0-40-17.9-40-40L0 72C0 49.9 17.9 32 40 32z"/></svg>

<svg xmlns="http://www.w3.org/2000/svg" viewBox="0 0 448 512"><!--! Font Awesome Pro 6.4.0 by @fontawesome - https://fontawesome.com License - https://fontawesome.com/license (Commercial License) Copyright 2023 Fonticons, Inc. --><path d="M408 32c22.1 0 40 17.9 40 40V440c0 22.1-17.9 40-40 40H296c-4.4 0-8-3.6-8-8s3.6-8 8-8H408c13.3 0 24-10.7 24-24V72c0-13.3-10.7-24-24-24H296c-4.4 0-8-3.6-8-8s3.6-8 8-8H408zM40 32H152c4.4 0 8 3.6 8 8s-3.6 8-8 8H40C26.7 48 16 58.7 16 72V440c0 13.3 10.7 24 24 24H152c4.4 0 8 3.6 8 8s-3.6 8-8 8H40c-22.1 0-40-17.9-40-40V72C0 49.9 17.9 32 40 32z"/></svg>
